X:1
T: The Blooming Meadows
C:
R:Jig
Q:180
K:G
M:6/8
L:1/16
GF|D4G2 G4A2|B2d2B2 c2A2G2|F4D2 D2E2D2|D4G2 G4A2|B2A2G2 A2B2d2|f2e2d2 c2A2F2|G2A2G2 G4GF|
D4G2 G4A2|B2d2B2 c2A2G2|F4D2 D2E2D2|D4G2 G4A2|B2A2G2 A2B2d2|f2e2d2 c2A2F2|G2A2G2 G4(3def|
g4d2 d2e2f2|g4a2 b2a2g2|f4d2 d2e2d2|f4g2 a2f2d2|g4d2 d2e2f2|g4a2 b2a2g2|f2e2d2 c2A2F2|G2A2G2 G4(3def|
g4d2 d2e2f2|g4a2 b2a2g2|f4d2 d2e2d2|f4g2 a2f2d2|g4e2 f4d2|e2d2c2 B2c2d2|f2e2d2 c2A2F2|G2A2G2 G4||
